!!!COM: Palestrina, Giovanni Perluigi da
!!!OPR: Ecce ego Joannes
!!!OTL: Benedictus
**kern	**kern	**kern	**kern	**kern
*ICvox	*ICvox	*ICvox	*ICvox	*ICvox
*Ibass	*Itenor	*Itenor	*Icalto	*Icant
!Bassus	!Tenor 2	!Tenor 1	!Altus	!Cantus
*clefF4	*clefGv2	*clefGv2	*clefG2	*clefG2
*k[]	*k[]	*k[]	*k[]	*k[]
*G:mix	*G:mix	*G:mix	*G:mix	*G:mix
*M4/2	*M4/2	*M4/2	*M4/2	*M4/2
=1	=1	=1	=1	=1
0r	0r	0r	1r	0dd
.	.	.	2r	.
.	.	.	2d	.
=2	=2	=2	=2	=2
0r	0r	0r	4e	1g
.	.	.	4f	.
.	.	.	4g	.
.	.	.	4e	.
.	.	.	2f	1dd
.	.	.	2g	.
=3	=3	=3	=3	=3
0r	0r	0r	2c	2.cc
.	.	.	2e	.
.	.	.	.	4b
.	.	.	2f	2a
.	.	.	[2g	2g
=4	=4	=4	=4	=4
1r	0d	0r	2g]	0a
.	.	.	4f#	.
.	.	.	4e	.
2r	.	.	1f#	.
2D	.	.	.	.
=5	=5	=5	=5	=5
4E	1G	0r	1g	2g
4F	.	.	.	.
4G	.	.	.	2b
4E	.	.	.	.
2F	1d	.	2r	2a
2G	.	.	2d	2b
=6	=6	=6	=6	=6
1C	2.c	0r	4e	1.cc
.	.	.	4f	.
.	.	.	4g	.
.	4B	.	4e	.
1r	2A	.	2f	.
.	2G	.	2g	2b
=7	=7	=7	=7	=7
0r	1A	0r	2c	2.cc
.	.	.	1cc	.
.	.	.	.	4dd
.	2G	.	.	2ee
.	2g	.	4b	4dd
.	.	.	4a	4cc
=8	=8	=8	=8	=8
0r	4g	1r	4b	2dd
.	4f	.	4a	.
.	4e	.	4g	2.ee
.	4d	.	4f	.
.	1c	[1g	2e	.
.	.	.	.	4dd
.	.	.	2e	[2cc
=9	=9	=9	=9	=9
2r	1G	1g]	1d	2cc]
2G	.	.	.	2b
4A	2r	1c	1r	2cc
4B	.	.	.	.
4c	2c	.	.	2ee
4A	.	.	.	.
=10	=10	=10	=10	=10
2B	2d	1g	2r	2dd
2c	2e	.	2g	2.cc
1F	2f	2.f	4a	.
.	.	.	4b	4b
.	2F	.	4cc	2a
.	.	4e	4a	.
=11	=11	=11	=11	=11
0r	2G	2d	2b	2g
.	2A	2c	1cc	2f#
.	1G	1d	.	2g
.	.	.	2b	2dd
=12	=12	=12	=12	=12
0r	2r	1c	1cc	4ee
.	.	.	.	4ff
.	2c	.	.	4gg
.	.	.	.	4ee
.	2d	1r	2r	2ff
.	2e	.	2g	2gg
=13	=13	=13	=13	=13
0r	2f	0r	4a	2cc
.	.	.	4b	.
.	2a	.	4cc	2cc
.	.	.	4a	.
.	2g	.	2b	2dd
.	2c	.	2cc	2ee
=14	=14	=14	=14	=14
0r	1d	2r	1f	4ff
.	.	.	.	4ee
.	.	2d	.	4dd
.	.	.	.	4cc
.	1r	4e	1g	4b
.	.	4f	.	4a
.	.	4g	.	4b
.	.	4e	.	4cc
=15	=15	=15	=15	=15
0r	0r	2f	2a	1dd
.	.	2g	2b	.
.	.	2c	4cc	4ee
.	.	.	4b	4dd
.	.	2c	4a	4cc
.	.	.	4g	4b
=16	=16	=16	=16	=16
0r	0r	2d	2f	2a
.	.	2e	2g	2g
.	.	1d	2a	2f
.	.	.	[2g	2b-
=17	=17	=17	=17	=17
1r	0d	1r	2g]	0a
.	.	.	4f#	.
.	.	.	4e	.
2r	.	2r	1f#	.
2D	.	2d	.	.
=18	=18	=18	=18	=18
4E	1G	2.B	1g	2r
4F	.	.	.	.
4G	.	.	.	2g
4E	.	4c	.	.
2F	1d	2A	2r	2a
2G	.	2G	2d	2b
=19	=19	=19	=19	=19
2C	2.c	1A	4e	2cc
.	.	.	4f	.
2C	.	.	4g	2ee
.	4B	.	4e	.
2D	2A	1r	2f#	2dd
2E	2G	.	[2g	2cc#
=20	=20	=20	=20	=20
0D	0A	2r	2g]	0dd
.	.	2d	4f#	.
.	.	.	4e	.
.	.	1d	1f#	.
=21	=21	=21	=21	=21
2r	1G	1B	0g	2r
2G	.	.	.	2dd
2.c	1r	2r	.	1ee
.	.	2c	.	.
4c	.	.	.	.
=22	=22	=22	=22	=22
2B	0r	2.g	0r	2dd
2.c	.	.	.	2.ee
.	.	4g	.	.
.	.	2e	.	.
4B	.	.	.	4dd
4A	.	[2a	.	4cc
4G	.	.	.	4b
=23	=23	=23	=23	=23
4F	0r	4a]	0r	4a
4G	.	4g	.	4b
4A	.	2f	.	4cc
4B	.	.	.	4dd
2c	.	2e	.	2ee
[2d	.	2d	.	2ff
=24	=24	=24	=24	=24
4d]	1r	0g	1r	2.ee
4c	.	.	.	.
1c	.	.	.	.
.	.	.	.	8dd
.	.	.	.	8cc
.	1G	.	2r	1dd
2B	.	.	2g	.
=25	=25	=25	=25	=25
1c	2.g	1r	2.e	2r
.	.	.	.	2g
.	4g	.	4e	.
1r	2f#	2r	2d	4a
.	.	.	.	4b
.	[2g	2c	[2e	4cc
.	.	.	.	4dd
=26	=26	=26	=26	=26
0r	4g]	1.g	4e]	2ee
.	4f	.	4d	.
.	4e	.	4c	2ee
.	4d	.	4d	.
.	4c	.	4e	1ee
.	4d	.	4f	.
.	4e	2c	4g	.
.	4f	.	4a	.
=27	=27	=27	=27	=27
0r	2g	2B	2b	2r
.	2.a	8A	2cc	1ee
.	.	8B	.	.
.	.	8c	.	.
.	.	8d	.	.
.	.	2e	2b	.
.	4g	.	.	.
.	[2g	2e	4a	2cc
.	.	.	4g	.
=28	=28	=28	=28	=28
1D	2g]	0d	2a	0dd
.	2f#	.	2a	.
2.G	2g	.	2.b	.
.	2G	.	.	.
4G	.	.	4b	.
=29	=29	=29	=29	=29
2F#	2.d	2r	2a	0r
2.G	.	2G	2.b	.
.	4d	.	.	.
.	2d	2.B	.	.
4F	.	.	4a	.
4E	[2g	.	4g	.
4D	.	4B	4f	.
=30	=30	=30	=30	=30
4C	4g]	2c	4e	0r
4D	4f	.	4d	.
4E	2e	1g	2c	.
4F	.	.	.	.
2G	2d	.	2B	.
2A	2c	2f#	[2c	.
=31	=31	=31	=31	=31
0G	1d	0g	2c]	2r
.	.	.	4B	2g
.	.	.	4A	.
.	2r	.	2B	2.dd
.	2g	.	2b	.
.	.	.	.	4dd
=32	=32	=32	=32	=32
0r	2e	2r	2g	2cc
.	2f#	2d	2a	2.dd
.	[1g	2G	4b	.
.	.	.	4a	4cc
.	.	2G	4g	4b
.	.	.	4f	4a
=33	=33	=33	=33	=33
0r	1g]	2c	4e	4g
.	.	.	4f	4a
.	.	4B	4g	4b
.	.	4A	4a	4cc
.	[1g	2G	2b	2dd
.	.	[2c	[2cc	[2ee
=34	=34	=34	=34	=34
0r	2g]	2c]	2cc]	2ee]
.	2f	2d	2a	1dd
.	1e	1A	1a	.
.	.	.	.	2cc#
=35	=35	=35	=35	=35
1D	1f#	1d	2r	0dd
.	.	.	2a	.
2.G	1g	2r	2.b	.
.	.	2G	.	.
4G	.	.	4b	.
=36	=36	=36	=36	=36
2F#	1r	2.d	2a	2r
2.G	.	.	2.b	2dd
.	.	4d	.	.
.	1G	1B	.	2.gg
4F	.	.	4a	.
4E	.	.	[2g	.
4D	.	.	.	4ff
=37	=37	=37	=37	=37
[0C	2.g	4c	4g]	2ee
.	.	4d	4f	.
.	.	4e	4e	2.gg
.	4f	4f	4d	.
.	2e	2.g	4c	.
.	.	.	4d	4ff
.	[2g	.	4e	4ee
.	.	4f	4f	4dd
=38	=38	=38	=38	=38
1C]	4g]	1.e	1.g	1.cc
.	4f	.	.	.
.	4e	.	.	.
.	4d	.	.	.
1C	2c	.	.	.
.	2c	2e	2g	2cc
=39	=39	=39	=39	=39
0G	0B	0d	0g	0dd
*-	*-	*-	*-	*-
!! Hosanna
**kern	**kern	**kern	**kern	**kern	**kern
*ICvox	*ICvox	*ICvox	*ICvox	*ICvox	*ICvox
*Ibass	*Ibarit	*Itenor	*Itenor	*Icalto	*Icant
!Bassus	!Baritone	!Tenor 2	!Tenor 1	!Altus	!Cantus
*clefF4	*clefF4	*clefGv2	*clefGv2	*clefG2	*clefG2
*k[]	*k[]	*k[]	*k[]	*k[]	*k[]
*G:mix	*G:mix	*G:mix	*G:mix	*G:mix	*G:mix
*M3/2	*M3/2	*M3/2	*M3/2	*M3/2	*M3/2
=40	=40	=40	=40	=40	=40
1r	1r	1r	2g	2b	2dd
.	.	.	2.c	2cc	2ee
2r	2r	2r	.	2a	2cc
.	.	.	4d	.	.
=41	=41	=41	=41	=41	=41
1r	1r	1r	2e	2g	2b
.	.	.	2d	2b	2dd
2r	2r	2r	2f	2a	2cc
=42	=42	=42	=42	=42	=42
1r	1r	1r	2g	1g	2b
.	.	.	1d	.	1a
2r	2r	2r	.	2f#	.
=43	=43	=43	=43	=43	=43
2G	2B	2g	2d	2g	2g
2A	2c	2e	2r	2r	2r
2F	2d	2a	2A	2r	2r
=44	=44	=44	=44	=44	=44
2E	2e	1g	2c	1r	1r
2G	2.d	.	2B	.	.
2F	.	2a	2A	2r	2r
.	4c	.	.	.	.
=45	=45	=45	=45	=45	=45
1E	1c	2g	2c	2g	2r
.	.	2f	1F	2a	2r
2D	2B	2d	.	2f	2dd
=46	=46	=46	=46	=46	=46
1C	2c	2r	2G	2e	2ee
.	2e	2G	2r	2.g	2cc
2G	2d	2B	2g	.	2b
.	.	.	.	4d	.
=47	=47	=47	=47	=47	=47
4D	1r	1A	2a	4f	1dd
4E	.	.	.	4g	.
4F	.	.	2f	2a	.
4G	.	.	.	.	.
2A	2r	2A	2e	2a	2cc
=48	=48	=48	=48	=48	=48
2G	1r	2B	1g	2d	2b
2C	.	2c	.	2r	2ee
2D	2r	2A	2f	2r	2dd
=49	=49	=49	=49	=49	=49
2E	2r	2c	2e	2g	1cc
2F	2r	2A	1d	2a	.
2G	2d	2B	.	[2g	2b
=50	=50	=50	=50	=50	=50
1C	2e	1.G	1c	2g]	2.cc
.	2c	.	.	2e	.
.	.	.	.	.	4g
2r	2B	.	2r	[2g	2b
=51	=51	=51	=51	=51	=51
1r	1d	2r	1r	4g]	2.a
.	.	.	.	4f	.
.	.	2d	.	2f	.
.	.	.	.	.	4b
2r	2c	2e	2r	[2g	2cc
=52	=52	=52	=52	=52	=52
1r	2B	1g	2d	2g]	2dd
.	1A	.	2e	1a	2cc
2r	.	2f#	2c	.	2a
=53	=53	=53	=53	=53	=53
1r	1G	1g	2.B	1d	1.g
.	.	.	4c	.	.
2r	2r	2r	2d	2r	.
=54	=54	=54	=54	=54	=54
1r	1r	2g	2G	2b	2dd
.	.	2c	2g	2cc	2ee
2r	2r	2d	2f#	2a	2dd
=55	=55	=55	=55	=55	=55
1r	1r	1G	1g	2g	2b
.	.	.	.	2b	2dd
2r	2r	2A	2r	2a	2cc
=56	=56	=56	=56	=56	=56
2G	2d	2B	2r	1g	2b
2C	2e	2c	2r	.	1a
2D	2d	2A	2d	2f#	.
=57	=57	=57	=57	=57	=57
1G	2B	2r	2d	2g	1.g
.	2d	2B	2g	2r	.
2C	2c	2c	2e	2r	.
=58	=58	=58	=58	=58	=58
2G	2B	1.d	1g	1r	1r
1D	1A	.	.	.	.
.	.	.	2f#	2r	2r
=59	=59	=59	=59	=59	=59
2G	2G	2d	2g	2b	2dd
2r	2r	2g	2c	2cc	2ee
2r	2r	2f#	2d	2a	2dd
=60	=60	=60	=60	=60	=60
1r	1r	1g	1G	2g	2b
.	.	.	.	2b	2dd
2r	2r	2r	2A	2a	2cc
=61	=61	=61	=61	=61	=61
2G	2d	2r	2B	1g	2b
2C	2e	2r	2c	.	1a
2D	2d	2d	2A	2f#	.
=62	=62	=62	=62	=62	=62
1G	2B	2d	2r	2g	1g
.	2d	2g	2B	2d	.
2E	2c	2e	2c	[2g	2g
=63	=63	=63	=63	=63	=63
2G	2B	1g	1.d	2g]	2b
1D	1A	.	.	1a	1dd
.	.	2f#	.	.	.
=64	=64	=64	=64	=64	=64
1.G	1.G	1.g	1.d	1.b	1.dd
==	==	==	==	==	==
*-	*-	*-	*-	*-	*-
!!!CDT: 1525/^1526/-1594/2/2
!!!OCY: Italia
!!!AGN: Mass (Parody)
!!!AST: renaissance, vocal
!!!ASW: Motet (Unidentified)
!!!PWK: Masses, Book 12
!!!RNB: Cadence finals: D
!!!YOR: Le Opere Complete, v. 29, p. 197
!!!YOO: Rome, Italy: Fratelli Scalera
!!!END: 1992//
!!!EED: John Miller
!!!YEC: Copyright 2000, John Miller
!!!YEN: United States of America
!!!YEM: Rights to all derivative electronic formats reserved.
!!!YEM: Refer to licensing agreement for further details.
!!!YEM: This file must be accompanied by the licensing agreement.
!!!YEM: A copy of the licensing agreement may be found at http://www.music-cog.ohio-state.edu/HumdrumDatabases/Palestrina/license.txt
!!!EMD: converted to Humdrum by Bret Aarden
